/* XPM */
static char *dummy[]={
"21 18 6 1",
"# c #000000",
"c c #6699cc",
"b c #66cc66",
"a c #ff9933",
"d c #ffcc33",
". c #ffffff",
"............#####....",
".........###########.",
".........###########.",
"#.......####a###b####",
"#..#.######aa###bb###",
"...########aa###bb###",
"...########aa###bb###",
"#.......###a#####b###",
"#..a.aaa#############",
"...aaaaa####c###d####",
"#.......###cc###dd###",
"#.......###cc###dd###",
"#..c.ccc###cc###dd###",
"...ccccc###c#####d###",
"#.......#############",
"#.......#############",
"#..#.#######.....####",
"...######...........#"};
